public/assets/icons/tamagui-logo.svg

<svg fill="none" height="600" viewBox="0 0 820 600" width="820" xmlns="http://www.w3.org/2000/svg"><path clip-rule="evenodd" d="m478.24 0h-20.647v20.6476h20.647zm-29.732 0h-20.648v20.6476h20.648zm-29.733 0h-20.647v20.6476h20.647zm-29.732 0h-20.648v20.6476h20.648zm-29.733 0h-20.647v20.6476h20.647zm-29.732 0h-20.648v20.6476h20.648zm-29.733 29.6437h-20.647v20.6476h20.647zm-29.732 29.6448h-20.648v20.6476h20.648zm-29.733 29.6437h-20.647v20.6478h20.647zm0 29.6438h-20.647v20.648h20.647zm0 29.644h-20.647v20.647h20.647zm0 29.644h-20.647v20.648h20.647zm-29.732 29.644h-20.648v20.648h20.648zm0 29.644h-20.648v20.647h20.648zm0 29.645h-20.648v20.647h20.648zm29.732 29.643h-20.647v20.648h20.647zm29.733 29.644h-20.648v20.648h20.648zm29.732 29.644h-20.647v20.647h20.647zm29.733 29.645h-20.648v20.647h20.648zm29.732 0h-20.647v20.647h20.647zm29.733-29.645h-20.648v20.647h20.648zm29.732 0h-20.647v20.647h20.647zm0 29.645h-20.647v20.647h20.647zm29.733 0h-20.648v20.647h20.648zm29.732-29.645h-20.647v20.647h20.647zm0-29.644h-20.647v20.648h20.647zm29.733-29.644h-20.648v20.648h20.648zm29.732-59.288h-20.647v20.647h20.647zm0 29.645h-20.647v20.647h20.647zm0-59.289h-20.647v20.648h20.647zm29.733-29.644h-20.648v20.648h20.648zm29.732 0h-20.647v20.648h20.647zm29.733-29.644h-20.648v20.647h20.648zm-29.733-29.644h-20.647v20.648h20.647zm-29.732 0h-20.648v20.648h20.648zm-29.733 0h-20.647v20.648h20.647zm89.198-29.6438h-20.648v20.6478h20.648zm0 29.6438h-20.648v20.648h20.648zm-29.733-59.2875h-20.647v20.6476h20.647z" fill="#ededed" fill-rule="evenodd"/><path clip-rule="evenodd" d="m597.17 59.2959h-20.647v20.6476h20.647zm-29.732 0h-20.648v20.6476h20.648zm-59.465-29.6448h-20.648v20.6476h20.648zm-29.733 29.6448h-20.647v20.6476h20.647zm-89.197 29.6437h-20.648v20.6474h20.648zm0 118.5764h-20.648v20.647h20.648zm0 29.643h-20.648v20.648h20.648zm-29.733 29.645h-20.647v20.648h20.647zm-29.732-29.645h-20.648v20.648h20.648zm0-29.643h-20.648v20.647h20.648zm208.127-148.2201h-20.647v20.6476h20.647z" fill="#ededed" fill-rule="evenodd"/><path d="m20 571v-40h-10v-10h40v10h-10v40z" fill="#f16a50"/><path d="m130 571v-40h10v-10h30v10h10v40h-20v-20h-10v20zm20-30h10v-9.6h-10z" fill="#ff8b3e"/><path d="m260 571v-50h20v10h20v-10h20v50h-20v-20h-20v20z" fill="#f0c000"/><path d="m400 571v-40h10v-10h30v10h10v40h-20v-20h-10v20zm20-30h10v-9.6h-10z" fill="#4cc38a"/><path d="m540 571v-10h-10v-30h10v-10h40v10h-30v30h10v-20h20v20h-10v10z" fill="#52a9ff"/><path d="m670 571v-10h-10v-40h20v40h10v-40h20v40h-10v10z" fill="#d864d8"/><path d="m790 571v-50h20v50z" fill="#f65cb6"/></svg>

<svg width="820" height="600" viewBox="0 0 820 600" fill="none" xmlns="http://www.w3.org/2000/svg">
<path fill-rule="evenodd" clip-rule="evenodd" d="M478.24 0H457.593V20.6476H478.24V0ZM448.508 0H427.86V20.6476H448.508V0ZM418.775 0H398.128V20.6476H418.775V0ZM389.043 0H368.395V20.6476H389.043V0ZM359.31 0H338.663V20.6476H359.31V0ZM329.578 0H308.93V20.6476H329.578V0ZM299.845 29.6437H279.198V50.2913H299.845V29.6437ZM270.113 59.2885H249.465V79.9361H270.113V59.2885ZM240.38 88.9322H219.733V109.58H240.38V88.9322ZM240.38 118.576H219.733V139.224H240.38V118.576ZM240.38 148.22H219.733V168.867H240.38V148.22ZM240.38 177.864H219.733V198.512H240.38V177.864ZM210.648 207.508H190V228.156H210.648V207.508ZM210.648 237.152H190V257.799H210.648V237.152ZM210.648 266.797H190V287.444H210.648V266.797ZM240.38 296.44H219.733V317.088H240.38V296.44ZM270.113 326.084H249.465V346.732H270.113V326.084ZM299.845 355.728H279.198V376.375H299.845V355.728ZM329.578 385.373H308.93V406.02H329.578V385.373ZM359.31 385.373H338.663V406.02H359.31V385.373ZM389.043 355.728H368.395V376.375H389.043V355.728ZM418.775 355.728H398.128V376.375H418.775V355.728ZM418.775 385.373H398.128V406.02H418.775V385.373ZM448.508 385.373H427.86V406.02H448.508V385.373ZM478.24 355.728H457.593V376.375H478.24V355.728ZM478.24 326.084H457.593V346.732H478.24V326.084ZM507.973 296.44H487.325V317.088H507.973V296.44ZM537.705 237.152H517.058V257.799H537.705V237.152ZM537.705 266.797H517.058V287.444H537.705V266.797ZM537.705 207.508H517.058V228.156H537.705V207.508ZM567.438 177.864H546.79V198.512H567.438V177.864ZM597.17 177.864H576.523V198.512H597.17V177.864ZM626.903 148.22H606.255V168.867H626.903V148.22ZM597.17 118.576H576.523V139.224H597.17V118.576ZM567.438 118.576H546.79V139.224H567.438V118.576ZM537.705 118.576H517.058V139.224H537.705V118.576ZM626.903 88.9322H606.255V109.58H626.903V88.9322ZM626.903 118.576H606.255V139.224H626.903V118.576ZM597.17 59.2885H576.523V79.9361H597.17V59.2885Z" fill="#EDEDED"/>
<path fill-rule="evenodd" clip-rule="evenodd" d="M597.17 59.2959H576.523V79.9435H597.17V59.2959ZM567.438 59.2959H546.79V79.9435H567.438V59.2959ZM507.973 29.6511H487.325V50.2987H507.973V29.6511ZM478.24 59.2959H457.593V79.9435H478.24V59.2959ZM389.043 88.9396H368.395V109.587H389.043V88.9396ZM389.043 207.516H368.395V228.163H389.043V207.516ZM389.043 237.159H368.395V257.807H389.043V237.159ZM359.31 266.804H338.663V287.452H359.31V266.804ZM329.578 237.159H308.93V257.807H329.578V237.159ZM329.578 207.516H308.93V228.163H329.578V207.516ZM537.705 59.2959H517.058V79.9435H537.705V59.2959Z" fill="#EDEDED"/>
<path d="M20 571V531H10V521H50V531H40V571H20Z" fill="#F16A50"/>
<path d="M130 571V531H140V521H170V531H180V571H160V551H150V571H130ZM150 541H160V531.4H150V541Z" fill="#FF8B3E"/>
<path d="M260 571V521H280V531H300V521H320V571H300V551H280V571H260Z" fill="#F0C000"/>
<path d="M400 571V531H410V521H440V531H450V571H430V551H420V571H400ZM420 541H430V531.4H420V541Z" fill="#4CC38A"/>
<path d="M540 571V561H530V531H540V521H580V531H550V561H560V541H580V561H570V571H540Z" fill="#52A9FF"/>
<path d="M670 571V561H660V521H680V561H690V521H710V561H700V571H670Z" fill="#D864D8"/>
<path d="M790 571V521H810V571H790Z" fill="#F65CB6"/>
</svg>
